packages/components/bolt-icons/src/svgs/pega/pega-cloud-download.svg

<svg viewBox="0 0 32 32" xmlns="http://www.w3.org/2000/svg"><path fill="#fff" d="m24.5 7.5h-.44a10 10 0 0 0 -18.06 1.87 6.44 6.44 0 0 0 .53 12.87h1.57a1 1 0 0 0 0-2h-1.54a4.45 4.45 0 1 1 .05-8.89h.14a1 1 0 0 0 1-.75 8 8 0 0 1 14.86-1.6 1 1 0 0 0 1.11.53 5.12 5.12 0 0 1 .78-.06 5.44 5.44 0 0 1 5.5 5.4 5.44 5.44 0 0 1 -5.5 5.37h-1.11a1 1 0 0 0 0 2h1.11a7.37 7.37 0 1 0 0-14.74z"/><path fill="#fff" d="m19.54 23.45-2.54 2.55v-8.17a1 1 0 0 0 -2 0v8.17l-2.54-2.5a1 1 0 0 0 -1.42 0 1 1 0 0 0 0 1.41l4.26 4.09a1 1 0 0 0 .13.09 1.22 1.22 0 0 0 .19.12 1 1 0 0 0 .38.08.92.92 0 0 0 .36-.07.7.7 0 0 0 .23-.15.47.47 0 0 0 .11-.07l4.3-4.12a1 1 0 0 0 0-1.41 1 1 0 0 0 -1.46-.02z"/></svg>

<svg id="icon-cloud-download" data-name="cloud-download" xmlns="http://www.w3.org/2000/svg" viewBox="0 0 32 32"><path d="M24.5,7.5h-.44A10,10,0,0,0,6,9.37a6.44,6.44,0,0,0,.53,12.87H8.1a1,1,0,0,0,0-2H6.56a4.45,4.45,0,1,1,.05-8.89h.14a1,1,0,0,0,1-.75A8,8,0,0,1,22.61,9a1,1,0,0,0,1.11.53,5.12,5.12,0,0,1,.78-.06A5.44,5.44,0,0,1,30,14.87a5.44,5.44,0,0,1-5.5,5.37H23.39a1,1,0,0,0,0,2H24.5a7.37,7.37,0,1,0,0-14.74Z"/><path d="M19.54,23.45,17,26V17.83a1,1,0,0,0-2,0V26l-2.54-2.5a1,1,0,0,0-1.42,0,1,1,0,0,0,0,1.41L15.3,29a1,1,0,0,0,.13.09,1.22,1.22,0,0,0,.19.12,1,1,0,0,0,.38.08h0a.92.92,0,0,0,.36-.07.7.7,0,0,0,.23-.15A.47.47,0,0,0,16.7,29h0L21,24.88a1,1,0,0,0,0-1.41A1,1,0,0,0,19.54,23.45Z"/></svg>
